X: 1
T: Miss Wilhelmina McDowal's Reel - of Arndill
C: William Marshall
R: reel
Z: 2013 John Chambers <jc:trillian.mit.edu>
M: C|
L: 1/8
K: C
e/f/ |\
"C"gcac gcac | "C"g<c e<c "G7"d2de/f/ | "C"gcac gcec | "G7"BGAB "C"c2ce/f/ |
"C"gcac gcac | "C"g<c e<c "G7"d2de/f/ | "C"gcac gcec | "G7"BGAB "C"c2cG ||
"C"c2GE cGEc | "C"GcEc "G7"d2de | "C"c2GE "F"cagf | "C"e<c "G7"d<B "C"c2cG |
"C"c2GE cGEc | "C"GcEc "G7"d2de | "C"ce"Dm"df "C"eg"F"fa | "C"ec"G7"dB "C"c2c :|
